public/timetables/img/70.svg

<svg fill="none" height="1671" viewBox="0 0 1200 1671" width="1200" xmlns="http://www.w3.org/2000/svg"><path clip-rule="evenodd" d="m100.207 0h247.192c10.935.0251537 21.416 4.38795 29.148 12.1339 7.733 7.7459 12.089 18.2444 12.114 29.1987 0 109.7124.57 225.7104.57 330.2804h-55.808v-27.523h-218.004v27.523h-55.8077c0-104.76-.6656-220.282-.6656-330.2804.0251-10.9543 4.3802-21.4528 12.1128-29.1987 7.7327-7.74595 18.2132-12.1087463 29.1485-12.1339zm309.275 123.808h39.55v96.284h-39.55v-96.189zm-409.482 0h39.4552v96.284h-39.4552v-96.189zm114.088 137.616c5.435 0 10.747 1.614 15.265 4.639 4.519 3.024 8.04 7.323 10.12 12.352 2.079 5.029 2.624 10.563 1.564 15.902-1.061 5.339-3.678 10.244-7.52 14.093-3.843 3.849-8.739 6.47-14.069 7.532s-10.854.517-15.874-1.566c-5.0211-2.083-9.3123-5.611-12.3315-10.137-3.0191-4.526-4.6306-9.848-4.6306-15.291 0-7.3 2.8951-14.301 8.0479-19.462 5.1528-5.162 12.1412-8.062 19.4282-8.062zm-13.69-222.5676h247.191v45.9994h-247.191zm0 84.9516h247.191v110.093h-247.191v-109.998zm233.595 137.616c5.435 0 10.747 1.614 15.265 4.639 4.519 3.024 8.04 7.323 10.12 12.352s2.624 10.563 1.564 15.902-3.677 10.244-7.52 14.093-8.739 6.47-14.068 7.532c-5.33 1.062-10.855.517-15.875-1.566-5.021-2.083-9.312-5.611-12.331-10.137s-4.631-9.848-4.631-15.291c0-7.3 2.895-14.301 8.047-19.462 5.153-5.162 12.142-8.062 19.429-8.062z" fill="#00c200" fill-rule="evenodd"/><path d="m201.107 538.27-58.523 58.523 29.261 29.261 58.523-58.523zm103.745 0-59.055 58.523 29.794 29.261 58.523-58.523zm144.18 219.727h-39.37v96.298h39.37zm-409.6619 0h-39.3701v96.298h39.3701zm309.1089-38.838h-247.926v-46.286h247.926zm0 149.5h-247.926v-110.662h247.926zm-289.4238-193.126v330.917h55.8628v-27.661h219.196v27.661h55.863v-330.917c0-22.877-18.621-41.498-41.498-41.498h-247.926c-22.8768 0-41.4978 18.621-41.4978 41.498zm27.6655 248.457c0-15.428 11.7046-27.665 27.1333-27.665 15.429 0 27.666 12.237 27.666 27.665 0 15.429-12.237 27.134-27.666 27.134-15.4287 0-27.1333-11.705-27.1333-27.134zm220.7923 0c0-15.428 11.704-27.665 27.133-27.665s27.666 12.237 27.666 27.665c0 15.429-12.237 27.134-27.666 27.134s-27.133-11.705-27.133-27.134z" fill="#14bbff"/><path d="m541.936 38.7097c0-21.3788 17.33-38.7097 38.709-38.7097h580.645c21.38 0 38.71 17.3309 38.71 38.7097v294.1933c0 21.379-17.33 38.71-38.71 38.71h-580.645c-21.379 0-38.709-17.331-38.709-38.71z" fill="#00b400"/><path d="m778.844 70.4489-83.567 143.3961v34.142h91.046v50.075h40.645v-50.075h29.264l6.503-37.394h-35.767v-38.043h-40.645v38.043h-42.597v-1.3l80.315-138.8441z" fill="#fff"/><path d="m969.165 200.839c17.233 7.153 28.939 18.209 28.939 34.792 0 19.835-15.282 27.964-34.467 27.964s-34.467-8.129-34.467-27.964c0-16.909 8.129-30.24 25.688-40.645zm-32.842-73.487c0-14.307 10.731-22.436 27.314-22.436s27.314 8.129 27.314 22.436c0 14.632-6.829 26.988-19.185 36.418l-12.031-5.202c-14.307-6.178-23.412-14.958-23.412-31.216zm67.307 51.701c15.28-11.381 27.64-29.59 27.64-51.701 0-38.3689-24.39-60.1547-67.633-60.1547-43.246 0-67.634 21.7858-67.634 60.1547 0 23.737 11.056 41.296 27.639 50.4v1.301c-22.436 13.006-34.792 32.516-34.792 56.578 0 42.921 28.289 65.682 74.787 65.682 46.503 0 74.783-22.761 74.783-65.682 0-25.363-13-41.296-34.79-55.278z" fill="#fff"/><path d="m541.936 673.55c0-21.379 17.33-38.71 38.709-38.71h580.645c21.38 0 38.71 17.331 38.71 38.71v294.193c0 21.379-17.33 38.707-38.71 38.707h-580.645c-21.379 0-38.709-17.328-38.709-38.707z" fill="#00b4ff"/><path d="m821.284 932.902h43.572l80.965-193.146v-34.467h-144.697l-6.503 37.719h107.954z" fill="#fff"/><path d="m541.936 1281.08c0-21.37 17.33-38.7 38.709-38.7h580.645c21.38 0 38.71 17.33 38.71 38.7v294.2c0 21.38-17.33 38.71-38.71 38.71h-580.645c-21.379 0-38.709-17.33-38.709-38.71z" fill="#ff640a"/><path d="m716.412 1312.82-6.503 37.72h53.001v152.18h-57.879v37.72h149.574v-37.72h-51.05v-189.9z" fill="#fff"/><path d="m979.569 1405.17v-.98l43.901-56.9v-34.47h-122.265l-6.503 37.72h83.566v1.3l-45.522 59.18v23.74h18.534c22.111 0 40.32 10.08 40.32 35.77 0 24.38-17.559 35.44-39.019 35.44-18.535 0-32.191-5.85-45.198-14.31l-20.16 32.84c18.534 11.71 39.02 19.19 67.634 19.19 41.295 0 78.693-23.41 78.693-73.49 0-41.29-25.69-59.83-53.981-65.03z" fill="#fff"/><path clip-rule="evenodd" d="m100.854 1241.99h247.327c10.921.03 21.385 4.38 29.107 12.1 7.723 7.72 12.075 18.19 12.107 29.11v178.62l-13.742 68.71c-4.444 22.22-18.549 41.21-41.215 41.21h-219.842c-22.6647 0-36.7707-18.99-41.2171-41.21l-13.7396-68.71v-178.62c.0312-10.92 4.3834-21.39 12.1058-29.11s18.1878-12.07 29.1089-12.1zm308.635 123.65h39.543v96.18h-39.543zm-409.489 0h39.5486v96.18h-39.5486zm212.973 275.29 58.295-58.3 29.146 29.15-58.295 58.29zm-103.269 0 58.293-58.3 29.146 29.15-58.292 58.29zm4.895-495.12h219.837v38.88h-73.328l-49.369 49.37-29.143-29.15 20.223-20.22h-88.22zm178.618 343.49c5.434 0 10.747 1.61 15.267 4.63 4.519 3.02 8.041 7.31 10.121 12.33s2.624 10.55 1.564 15.88-3.677 10.23-7.519 14.07c-3.843 3.84-8.739 6.46-14.07 7.52-5.33 1.06-10.856.52-15.877-1.56s-9.313-5.6-12.333-10.12c-3.019-4.52-4.631-9.83-4.631-15.27-.001-7.29 2.894-14.28 8.047-19.43s12.143-8.05 19.431-8.05zm-137.402 0c5.435 0 10.748 1.61 15.267 4.63s8.04 7.31 10.12 12.34c2.08 5.02 2.624 10.54 1.564 15.87-1.061 5.33-3.678 10.23-7.521 14.07s-8.739 6.46-14.069 7.52c-5.331 1.06-10.856.52-15.877-1.56s-9.313-5.6-12.332-10.12c-3.02-4.52-4.632-9.83-4.632-15.27 0-7.29 2.896-14.28 8.049-19.43s12.143-8.05 19.431-8.05zm-54.961-207.26h247.327v44.72h-247.327zm0 84.98h247.327v94.8h-247.327z" fill="#ff6400" fill-rule="evenodd"/></svg>

<svg width="1200" height="1671" viewBox="0 0 1200 1671" fill="none" xmlns="http://www.w3.org/2000/svg">
<path fill-rule="evenodd" clip-rule="evenodd" d="M100.207 0H347.399C358.334 0.0251537 368.815 4.38795 376.547 12.1339C384.28 19.8798 388.636 30.3783 388.661 41.3326C388.661 151.045 389.231 267.043 389.231 371.613H333.423V344.09H115.419V371.613H59.6113C59.6113 266.853 58.9457 151.331 58.9457 41.3326C58.9708 30.3783 63.3259 19.8798 71.0585 12.1339C78.7912 4.38795 89.2717 0.0251537 100.207 0ZM409.482 123.808H449.032V220.092H409.482V123.903V123.808ZM0 123.808H39.4552V220.092H0V123.903V123.808ZM114.088 261.424C119.523 261.424 124.835 263.038 129.353 266.063C133.872 269.087 137.393 273.386 139.473 278.415C141.552 283.444 142.097 288.978 141.037 294.317C139.976 299.656 137.359 304.561 133.517 308.41C129.674 312.259 124.778 314.88 119.448 315.942C114.118 317.004 108.594 316.459 103.574 314.376C98.5529 312.293 94.2617 308.765 91.2425 304.239C88.2234 299.713 86.6119 294.391 86.6119 288.948C86.6119 281.648 89.507 274.647 94.6598 269.486C99.8126 264.324 106.801 261.424 114.088 261.424ZM100.398 38.8564H347.589V84.8558H100.398V38.8564ZM100.398 123.808H347.589V233.901H100.398V123.903V123.808ZM333.993 261.424C339.428 261.424 344.74 263.038 349.258 266.063C353.777 269.087 357.298 273.386 359.378 278.415C361.458 283.444 362.002 288.978 360.942 294.317C359.882 299.656 357.265 304.561 353.422 308.41C349.579 312.259 344.683 314.88 339.354 315.942C334.024 317.004 328.499 316.459 323.479 314.376C318.458 312.293 314.167 308.765 311.148 304.239C308.129 299.713 306.517 294.391 306.517 288.948C306.517 281.648 309.412 274.647 314.564 269.486C319.717 264.324 326.706 261.424 333.993 261.424Z" fill="#00B400"/>
<path d="M201.107 538.27L142.584 596.793L171.845 626.054L230.368 567.531L201.107 538.27ZM304.852 538.27L245.797 596.793L275.591 626.054L334.114 567.531L304.852 538.27ZM449.032 757.997H409.662V854.295H449.032V757.997ZM39.3701 757.997H0V854.295H39.3701V757.997ZM348.479 719.159H100.553V672.873H348.479V719.159ZM348.479 868.659H100.553V757.997H348.479V868.659ZM59.0552 675.533V1006.45H114.918V978.789H334.114V1006.45H389.977V675.533C389.977 652.656 371.356 634.035 348.479 634.035H100.553C77.6762 634.035 59.0552 652.656 59.0552 675.533ZM86.7207 923.99C86.7207 908.562 98.4253 896.325 113.854 896.325C129.283 896.325 141.52 908.562 141.52 923.99C141.52 939.419 129.283 951.124 113.854 951.124C98.4253 951.124 86.7207 939.419 86.7207 923.99ZM307.513 923.99C307.513 908.562 319.217 896.325 334.646 896.325C350.075 896.325 362.312 908.562 362.312 923.99C362.312 939.419 350.075 951.124 334.646 951.124C319.217 951.124 307.513 939.419 307.513 923.99Z" fill="#00B4FF"/>
<path d="M541.936 38.7097C541.936 17.3309 559.266 0 580.645 0H1161.29C1182.67 0 1200 17.3309 1200 38.7097V332.903C1200 354.282 1182.67 371.613 1161.29 371.613H580.645C559.266 371.613 541.936 354.282 541.936 332.903V38.7097Z" fill="#00B400"/>
<path d="M778.844 70.4489L695.277 213.845V247.987H786.323V298.062H826.968V247.987H856.232L862.735 210.593H826.968V172.55H786.323V210.593H743.726V209.293L824.041 70.4489H778.844Z" fill="white"/>
<path d="M969.165 200.839C986.398 207.992 998.104 219.048 998.104 235.631C998.104 255.466 982.822 263.595 963.637 263.595C944.452 263.595 929.17 255.466 929.17 235.631C929.17 218.722 937.299 205.391 954.858 194.986L969.165 200.839ZM936.323 127.352C936.323 113.045 947.054 104.916 963.637 104.916C980.22 104.916 990.951 113.045 990.951 127.352C990.951 141.984 984.122 154.34 971.766 163.77L959.735 158.568C945.428 152.39 936.323 143.61 936.323 127.352ZM1003.63 179.053C1018.91 167.672 1031.27 149.463 1031.27 127.352C1031.27 88.9831 1006.88 67.1973 963.637 67.1973C920.391 67.1973 896.003 88.9831 896.003 127.352C896.003 151.089 907.059 168.648 923.642 177.752V179.053C901.206 192.059 888.85 211.569 888.85 235.631C888.85 278.552 917.139 301.313 963.637 301.313C1010.14 301.313 1038.42 278.552 1038.42 235.631C1038.42 210.268 1025.42 194.335 1003.63 180.353V179.053Z" fill="white"/>
<path d="M541.936 673.55C541.936 652.171 559.266 634.84 580.645 634.84H1161.29C1182.67 634.84 1200 652.171 1200 673.55V967.743C1200 989.122 1182.67 1006.45 1161.29 1006.45H580.645C559.266 1006.45 541.936 989.122 541.936 967.743V673.55Z" fill="#00B4FF"/>
<path d="M821.284 932.902H864.856L945.821 739.756V705.289H801.124L794.621 743.008H902.575L821.284 932.902Z" fill="white"/>
<path d="M541.936 1281.08C541.936 1259.71 559.266 1242.38 580.645 1242.38H1161.29C1182.67 1242.38 1200 1259.71 1200 1281.08V1575.28C1200 1596.66 1182.67 1613.99 1161.29 1613.99H580.645C559.266 1613.99 541.936 1596.66 541.936 1575.28V1281.08Z" fill="#FF640A"/>
<path d="M716.412 1312.82L709.909 1350.54H762.91V1502.72H705.031V1540.44H854.605V1502.72H803.555V1312.82H716.412Z" fill="white"/>
<path d="M979.569 1405.17V1404.19L1023.47 1347.29V1312.82H901.205L894.702 1350.54H978.268V1351.84L932.746 1411.02V1434.76H951.28C973.391 1434.76 991.6 1444.84 991.6 1470.53C991.6 1494.91 974.041 1505.97 952.581 1505.97C934.046 1505.97 920.39 1500.12 907.383 1491.66L887.223 1524.5C905.757 1536.21 926.243 1543.69 954.857 1543.69C996.152 1543.69 1033.55 1520.28 1033.55 1470.2C1033.55 1428.91 1007.86 1410.37 979.569 1405.17Z" fill="white"/>
<path fill-rule="evenodd" clip-rule="evenodd" d="M100.854 1241.99H348.181C359.102 1242.02 369.566 1246.37 377.288 1254.09C385.011 1261.81 389.363 1272.28 389.395 1283.2V1461.82L375.653 1530.53C371.209 1552.75 357.104 1571.74 334.438 1571.74H114.596C91.9313 1571.74 77.8253 1552.75 73.3789 1530.53L59.6393 1461.82V1283.2C59.6705 1272.28 64.0227 1261.81 71.7451 1254.09C79.4675 1246.37 89.9329 1242.02 100.854 1241.99ZM409.489 1365.64H449.032V1461.82H409.489V1365.64ZM0 1365.64H39.5486V1461.82H0V1365.64ZM212.973 1640.93L271.268 1582.63L300.414 1611.78L242.119 1670.07L212.973 1640.93ZM109.704 1640.93L167.997 1582.63L197.143 1611.78L138.851 1670.07L109.704 1640.93ZM114.599 1145.81H334.436V1184.69H261.108L211.739 1234.06L182.596 1204.91L202.819 1184.69H114.599V1145.81ZM293.217 1489.3C298.651 1489.3 303.964 1490.91 308.484 1493.93C313.003 1496.95 316.525 1501.24 318.605 1506.26C320.685 1511.28 321.229 1516.81 320.169 1522.14C319.109 1527.47 316.492 1532.37 312.65 1536.21C308.807 1540.05 303.911 1542.67 298.58 1543.73C293.25 1544.79 287.724 1544.25 282.703 1542.17C277.682 1540.09 273.39 1536.57 270.37 1532.05C267.351 1527.53 265.739 1522.22 265.739 1516.78C265.738 1509.49 268.633 1502.5 273.786 1497.35C278.939 1492.2 285.929 1489.3 293.217 1489.3ZM155.815 1489.3C161.25 1489.3 166.563 1490.91 171.082 1493.93C175.601 1496.95 179.122 1501.24 181.202 1506.27C183.282 1511.29 183.826 1516.81 182.766 1522.14C181.705 1527.47 179.088 1532.37 175.245 1536.21C171.402 1540.05 166.506 1542.67 161.176 1543.73C155.845 1544.79 150.32 1544.25 145.299 1542.17C140.278 1540.09 135.986 1536.57 132.967 1532.05C129.947 1527.53 128.335 1522.22 128.335 1516.78C128.335 1509.49 131.231 1502.5 136.384 1497.35C141.537 1492.2 148.527 1489.3 155.815 1489.3ZM100.854 1282.04H348.181V1326.76H100.854L100.854 1282.04ZM100.854 1367.02H348.181V1461.82H100.854L100.854 1367.02Z" fill="#FF640A"/>
</svg>
